packages/gestalt-icons-android/vr-theme/ic_vr_business-hierarchy_gestalt.svg

<svg width="24" height="24" viewBox="0 0 24 24" fill="none" xmlns="http://www.w3.org/2000/svg">
<path fill-rule="evenodd" clip-rule="evenodd" d="M7 0C4.23858 0 2 2.23858 2 5V7C2 9.76142 4.23858 12 7 12H11V14H7C4.5297 14 2.47781 15.7915 2.07263 18.1461C0.869654 18.5367 0 19.6668 0 21C0 22.6569 1.34315 24 3 24C4.65685 24 6 22.6569 6 21C6 19.7334 5.21505 18.6501 4.10508 18.2101C4.45179 16.9365 5.61653 16 7 16H11V18.1707C9.83481 18.5825 9 19.6938 9 21C9 22.6569 10.3431 24 12 24C13.6569 24 15 22.6569 15 21C15 19.6938 14.1652 18.5825 13 18.1707V16H17C18.3835 16 19.5482 16.9365 19.8949 18.2101C18.7849 18.6501 18 19.7334 18 21C18 22.6569 19.3431 24 21 24C22.6569 24 24 22.6569 24 21C24 19.6668 23.1303 18.5367 21.9274 18.1461C21.5222 15.7915 19.4703 14 17 14H13V12H17C19.7614 12 22 9.76142 22 7V5C22 2.23858 19.7614 0 17 0H7ZM4 5C4 3.34315 5.34315 2 7 2H17C18.6569 2 20 3.34315 20 5V7C20 8.65685 18.6569 10 17 10H7C5.34315 10 4 8.65685 4 7V5ZM11 21C11 20.4477 11.4477 20 12 20C12.5523 20 13 20.4477 13 21C13 21.5523 12.5523 22 12 22C11.4477 22 11 21.5523 11 21ZM21 20C20.4477 20 20 20.4477 20 21C20 21.5523 20.4477 22 21 22C21.5523 22 22 21.5523 22 21C22 20.4477 21.5523 20 21 20ZM2 21C2 20.4477 2.44772 20 3 20C3.55228 20 4 20.4477 4 21C4 21.5523 3.55228 22 3 22C2.44772 22 2 21.5523 2 21Z" fill="black"/>
</svg>

<svg xmlns="http://www.w3.org/2000/svg" width="24" height="24"><path d="M7 0a5 5 0 0 0-5 5v2a5 5 0 0 0 5 5h4v2H7a5 5 0 0 0-4.93 4.15 3 3 0 1 0 2.04.06A3 3 0 0 1 7 16h4v2.17a3 3 0 1 0 2 0V16h4a3 3 0 0 1 2.9 2.21 3 3 0 1 0 2.03-.06A5 5 0 0 0 17 14h-4v-2h4a5 5 0 0 0 5-5V5a5 5 0 0 0-5-5zM4 5a3 3 0 0 1 3-3h10a3 3 0 0 1 3 3v2a3 3 0 0 1-3 3H7a3 3 0 0 1-3-3zm7 16a1 1 0 1 1 2 0 1 1 0 0 1-2 0m11 0a1 1 0 1 1-2 0 1 1 0 0 1 2 0M2 21a1 1 0 1 1 2 0 1 1 0 0 1-2 0"/></svg>
